trunk/WorldWind/resources/milstd2525/icons/ems/eufalo---------.svg

<?xml version="1.0" encoding="UTF-8" standalone="no"?>
<!--
Copyright (C) 2012 United States Government as represented by the Administrator of the
National Aeronautics and Space Administration.
All Rights Reserved.
-->

<!--
MIL-STD-2525 tactical symbol icon image. During icon composition this image is multiplied by the desired frame color 
(e.g. black), then drawn on top of the frame and fill.
-->

<svg
   xmlns:dc="http://purl.org/dc/elements/1.1/"
   xmlns:cc="http://creativecommons.org/ns#"
   xmlns:rdf="http://www.w3.org/1999/02/22-rdf-syntax-ns#"
   xmlns:svg="http://www.w3.org/2000/svg"
   xmlns="http://www.w3.org/2000/svg"
   xmlns:sodipodi="http://sodipodi.sourceforge.net/DTD/sodipodi-0.dtd"
   xmlns:inkscape="http://www.inkscape.org/namespaces/inkscape"
   height="400px"
   viewBox="0 0 400 400"
   width="400px"
   id="svg2"
   version="1.1"
   inkscape:version="0.48.2 r9819"
   sodipodi:docname="eufalo---------.svg">
  <metadata
     id="metadata38">
    <rdf:RDF>
      <cc:Work
         rdf:about="">
        <dc:format>image/svg+xml</dc:format>
        <dc:type
           rdf:resource="http://purl.org/dc/dcmitype/StillImage" />
      </cc:Work>
    </rdf:RDF>
  </metadata>
  <defs
     id="defs36" />
  <sodipodi:namedview
     pagecolor="#ffffff"
     bordercolor="#666666"
     borderopacity="1"
     objecttolerance="10"
     gridtolerance="10"
     guidetolerance="10"
     inkscape:pageopacity="0"
     inkscape:pageshadow="2"
     inkscape:window-width="640"
     inkscape:window-height="480"
     id="namedview34"
     showgrid="false"
     inkscape:zoom="0.59"
     inkscape:cx="200"
     inkscape:cy="200"
     inkscape:window-x="214"
     inkscape:window-y="132"
     inkscape:window-maximized="0"
     inkscape:current-layer="svg2" />
  <g
     transform="matrix(100,0,0,100,72,65)"
     id="g4"
     style="stroke:#000000;stroke-width:0.06;stroke-miterlimit:4;stroke-opacity:1;stroke-dasharray:0.12, 0.06;stroke-dashoffset:0">
    <polygon
       points="1.97966,0.782555 1.97966,0.731976 1.75919,0.731374 1.78276,0.781843 "
       style="fill:#000000;stroke:#000000;stroke-width:0.06;stroke-miterlimit:4;stroke-opacity:1;stroke-dasharray:0.12, 0.06;stroke-dashoffset:0"
       id="polygon6" />
    <path
       inkscape:connector-curvature="0"
       d="m 1.7579,0.840913 0.02723,0 0,0.015559 c 0,0.015099 0.02025,0.051795 0.03029,0.059197 0.0125,0.00922 0.04686,0.022508 0.06698,0.022508 0.06544,0 0.09726,-0.046598 0.09726,-0.112827 l 0,-0.011673 -0.18675,0 c -0.01147,0 -0.02968,0.019275 -0.03501,0.027236 z"
       style="fill:#000000;stroke:#000000;stroke-width:0.06;stroke-miterlimit:4;stroke-opacity:1;stroke-dasharray:0.12, 0.06;stroke-dashoffset:0"
       id="path8" />
    <path
       inkscape:connector-curvature="0"
       d="m 0.544043,1.25331 0.715867,0 C 1.25965,1.24176 1.22183,1.14142 1.21555,1.13036 1.19011,1.0856 1.20657,1.03933 1.13541,1.03933 l -0.462981,0 c -0.059071,0 -0.065579,0.04787 -0.081756,0.08942 -0.00709,0.01821 -0.045685,0.11318 -0.04663,0.12456 z"
       style="fill:#ffffff;stroke:#000000;stroke-width:0.06;stroke-miterlimit:4;stroke-opacity:1;stroke-dasharray:0.12, 0.06;stroke-dashoffset:0"
       id="path10" />
    <path
       inkscape:connector-curvature="0"
       d="M 1.44276,1.0121 C 1.44785,0.990234 1.46686,0.973781 1.49334,0.973191 l 0,0.054469 -0.05058,0 c 7.8e-4,0.03499 0.01948,0.05369 0.05447,0.05447 l 0,-0.05058 0.05058,0 C 1.54709,1.06377 1.52859,1.0684 1.51279,1.08213 l 0.19453,0 0.00131,0.2538 0.25156,-0.357948 -0.25287,-0.004792 -0.15951,0 0,-0.190634 c 0,-0.029181 -0.01897,-0.054468 -0.04669,-0.054468 l -0.01167,0 c -0.05554,0 -0.05058,0.059563 -0.05058,0.116717 0,0.034578 -0.00947,0.14624 0.00389,0.167295 z m 0,0 0,0.01556 0.05058,0 0,-0.054469 C 1.46686,0.973781 1.44785,0.990234 1.44276,1.0121 z m 0.05447,0.07003 0.01556,0 C 1.52859,1.0684 1.54709,1.06377 1.54781,1.03156 l -0.05058,0 z"
       style="fill:#000000;stroke:#000000;stroke-width:0.06;stroke-miterlimit:4;stroke-opacity:1;stroke-dasharray:0.12, 0.06;stroke-dashoffset:0"
       id="path12" />
    <path
       inkscape:connector-curvature="0"
       d="m 0.450669,1.42839 0,0.01945 c 0,0.03624 0.037402,0.06614 0.073921,0.06614 0.044449,0 0.085591,-0.03312 0.085591,-0.07392 l 0,-0.00778 c 0,-0.04136 -0.038677,-0.07781 -0.081701,-0.07781 -0.044957,0 -0.077811,0.02896 -0.077811,0.07392 z"
       style="fill:#ffffff;stroke:#000000;stroke-width:0.06;stroke-miterlimit:4;stroke-opacity:1;stroke-dasharray:0.12, 0.06;stroke-dashoffset:0"
       id="path14" />
    <path
       inkscape:connector-curvature="0"
       d="m 1.19376,1.42839 0,0.01167 c 0,0.04172 0.04243,0.07392 0.08559,0.07392 0.03447,0 0.07782,-0.03404 0.07782,-0.06614 l 0,-0.01556 c 0,-0.04195 -0.03587,-0.07781 -0.07782,-0.07781 -0.04334,0 -0.08559,0.03162 -0.08559,0.07392 z"
       style="fill:#ffffff;stroke:#000000;stroke-width:0.06;stroke-miterlimit:4;stroke-opacity:1;stroke-dasharray:0.12, 0.06;stroke-dashoffset:0"
       id="path16" />
    <path
       inkscape:connector-curvature="0"
       d="m 1.86294,1.78243 0.00778,-0.0817 0.01167,-0.15563 0.04291,0 0.01934,0.32292 0.14395,0 0,-0.84814 C 2.08859,1.00617 2.0576,0.973189 2.03802,0.973189 L 2.02439,0.974508 1.77735,1.3389 l 0.21009,0 0,0.08949 -0.28012,0 0,0.43963 0.15173,0 -9.2e-4,-0.01953 z"
       style="fill:#000000;stroke:#000000;stroke-width:0.06;stroke-miterlimit:4;stroke-opacity:1;stroke-dasharray:0.12, 0.06;stroke-dashoffset:0"
       id="path18" />
    <path
       inkscape:connector-curvature="0"
       d="m 1.19376,1.42839 c 0,-0.0423 0.04225,-0.07392 0.08559,-0.07392 0.04195,0 0.07782,0.03586 0.07782,0.07781 l 0,0.01556 c 0,0.0321 -0.04335,0.06614 -0.07782,0.06614 -0.04316,0 -0.08559,-0.0322 -0.08559,-0.07392 z m -0.743094,0 c 0,-0.04496 0.032854,-0.07392 0.077811,-0.07392 0.043024,0 0.081701,0.03645 0.081701,0.07781 l 0,0.00778 c 0,0.0408 -0.041142,0.07392 -0.085591,0.07392 -0.03652,0 -0.073921,-0.0299 -0.073921,-0.06614 z M 0.54404,1.25332 C 0.544985,1.24193 0.583579,1.14697 0.59067,1.12876 0.606847,1.0872 0.613355,1.03933 0.672426,1.03933 l 0.462974,0 c 0.07117,0 0.0547,0.04628 0.08015,0.09104 0.00628,0.01105 0.04409,0.1114 0.04435,0.12295 z M 0.450666,1.27666 c -0.052567,0 -0.093374,0.03671 -0.093374,0.08948 l 0,0.22954 c 0,0.02591 0.042437,0.05836 0.077811,0.05836 l 0,0.13228 c 0,0.04531 0.033492,0.0817 0.081701,0.0817 0.035366,0 0.077811,-0.03962 0.077811,-0.06613 l 0,-0.14785 0.618595,0 0,0.15563 c 0,0.02392 0.04171,0.05835 0.07392,0.05835 l 0.00389,0 c 0.03544,0 0.07781,-0.03282 0.07781,-0.06613 l 0,-0.14785 c 0.04768,0 0.08171,-0.03398 0.08171,-0.0817 l 0,-0.20231 C 1.45054,1.31904 1.41678,1.28706 1.37113,1.27826 1.34037,1.27233 1.34601,1.25691 1.33311,1.23069 1.32366,1.21149 1.31577,1.18928 1.30717,1.17103 1.27589,1.1047 1.25317,0.965413 1.16653,0.965413 l -0.529116,0 C 0.564248,0.965413 0.54915,1.04834 0.525276,1.10227 0.509279,1.13839 0.457638,1.24673 0.450666,1.27666 z"
       style="fill:#000000;stroke:#000000;stroke-width:0.06;stroke-miterlimit:4;stroke-opacity:1;stroke-dasharray:0.12, 0.06;stroke-dashoffset:0"
       id="path20" />
    <line
       x1="1.70732"
       x2="1.70863"
       y1="1.42839"
       y2="1.33593"
       id="line22"
       style="stroke:#000000;stroke-width:0.06;stroke-miterlimit:4;stroke-opacity:1;stroke-dasharray:0.12, 0.06;stroke-dashoffset:0" />
    <line
       x1="1.9601901"
       x2="2.0380199"
       y1="0.97798002"
       y2="0.973189"
       id="line24"
       style="stroke:#000000;stroke-width:0.06;stroke-miterlimit:4;stroke-opacity:1;stroke-dasharray:0.12, 0.06;stroke-dashoffset:0" />
    <polygon
       points="1.70863,1.33593 1.70732,1.42839 1.98744,1.42839 1.98744,1.3389 1.77735,1.3389 2.02439,0.974508 2.03802,0.973189 1.96019,0.97798 "
       style="fill:#ffffff;stroke:#000000;stroke-width:0.06;stroke-miterlimit:4;stroke-opacity:1;stroke-dasharray:0.12, 0.06;stroke-dashoffset:0"
       id="polygon26" />
    <line
       x1="1.78276"
       x2="1.79291"
       y1="0.78184301"
       y2="0.81367701"
       id="line28"
       style="stroke:#000000;stroke-width:0.06;stroke-miterlimit:4;stroke-opacity:1;stroke-dasharray:0.12, 0.06;stroke-dashoffset:0" />
    <line
       x1="1.97966"
       x2="1.97966"
       y1="0.78255498"
       y2="0.81367701"
       id="line30"
       style="stroke:#000000;stroke-width:0.06;stroke-miterlimit:4;stroke-opacity:1;stroke-dasharray:0.12, 0.06;stroke-dashoffset:0" />
    <polygon
       points="1.97966,0.782555 1.78276,0.781843 1.79291,0.813677 1.97966,0.813677 "
       style="fill:#ffffff;stroke:#000000;stroke-width:0.06;stroke-miterlimit:4;stroke-opacity:1;stroke-dasharray:0.12, 0.06;stroke-dashoffset:0"
       id="polygon32" />
  </g>
</svg>

<?xml version="1.0"?>
<!--
Copyright (C) 2012 United States Government as represented by the Administrator of the
National Aeronautics and Space Administration.
All Rights Reserved.
-->

<!DOCTYPE svg PUBLIC "-//W3C//DTD SVG 1.1//EN" "http://www.w3.org/Graphics/SVG/1.1/DTD/svg11.dtd" >
<!--
MIL-STD-2525 tactical symbol icon image. During icon composition this image is multiplied by the desired frame color 
(e.g. black), then drawn on top of the frame and fill.
-->
<svg xmlns:xlink="http://www.w3.org/1999/xlink" height="400px" viewBox="0 0 400 400" width="400px"><g transform="scale(100) translate(0.72 0.65)"><polygon points="1.78276,0.781843 1.97966,0.782555 1.97966,0.731976 1.75919,0.731374" style="fill:rgb(0,0,0)"/><path d="M1.7579 0.840913 L1.78513 0.840913 L1.78513 0.856472 C1.78513 0.871571 1.80538 0.908267     1.81542 0.915669 C1.82792 0.924889 1.86228 0.938177 1.8824 0.938177 C1.94784     0.938177 1.97966 0.891579 1.97966 0.82535 L1.97966 0.813677 L1.79291     0.813677 C1.78144 0.813677 1.76323 0.832952 1.7579 0.840913 z" style="fill:rgb(0,0,0)"/><path d="M0.544043 1.25331 L1.25991 1.25331 C1.25965 1.24176 1.22183 1.14142 1.21555 1.13036     C1.19011 1.0856 1.20657 1.03933 1.13541 1.03933 L0.672429 1.03933 C0.613358     1.03933 0.60685 1.0872 0.590673 1.12875 C0.583583 1.14696 0.544988 1.24193     0.544043 1.25331 z" style="fill:rgb(255,255,255)"/><path d="M1.44276 1.0121 C1.44785 0.990234 1.46686 0.973781 1.49334 0.973191 L1.49334 1.02766     L1.44276 1.02766 C1.44354 1.06265 1.46224 1.08135 1.49723 1.08213 L1.49723     1.03155 L1.54781 1.03155 C1.54709 1.06377 1.52859 1.0684 1.51279 1.08213     L1.70732 1.08213 L1.70863 1.33593 L1.96019 0.977982 L1.70732 0.97319 L1.54781     0.97319 L1.54781 0.782556 C1.54781 0.753375 1.52884 0.728088 1.50112 0.728088     L1.48945 0.728088 C1.43391 0.728088 1.43887 0.787651 1.43887 0.844805 C1.43887     0.879383 1.4294 0.991045 1.44276 1.0121 zM1.44276 1.0121 L1.44276 1.02766     L1.49334 1.02766 L1.49334 0.973191 C1.46686 0.973781 1.44785 0.990234 1.44276     1.0121 zM1.49723 1.08213 L1.51279 1.08213 C1.52859 1.0684 1.54709 1.06377     1.54781 1.03156 L1.49723 1.03156 z" style="fill:rgb(0,0,0)"/><path d="M0.450669 1.42839 L0.450669 1.44784 C0.450669 1.48408 0.488071 1.51398 0.52459 1.51398     C0.569039 1.51398 0.610181 1.48086 0.610181 1.44006 L0.610181 1.43228     C0.610181 1.39092 0.571504 1.35447 0.52848 1.35447 C0.483523 1.35447 0.450669     1.38343 0.450669 1.42839 z" style="fill:rgb(255,255,255)"/><path d="M1.19376 1.42839 L1.19376 1.44006 C1.19376 1.48178 1.23619 1.51398 1.27935 1.51398     C1.31382 1.51398 1.35717 1.47994 1.35717 1.44784 L1.35717 1.43228 C1.35717     1.39033 1.3213 1.35447 1.27935 1.35447 C1.23601 1.35447 1.19376 1.38609 1.19376     1.42839 z" style="fill:rgb(255,255,255)"/><path d="M1.86294 1.78243 L1.87072 1.70073 L1.88239 1.5451 L1.9253 1.5451 L1.94464 1.86802     L2.08859 1.86802 L2.08859 1.01988 C2.08859 1.00617 2.0576 0.973189 2.03802     0.973189 L2.02439 0.974508 L1.77735 1.3389 L1.98744 1.3389 L1.98744 1.42839     L1.70732 1.42839 L1.70732 1.86802 L1.85905 1.86802 L1.85813 1.84849 z" style="fill:rgb(0,0,0)"/><path d="M1.19376 1.42839 C1.19376 1.38609 1.23601 1.35447 1.27935 1.35447 C1.3213 1.35447     1.35717 1.39033 1.35717 1.43228 L1.35717 1.44784 C1.35717 1.47994 1.31382 1.51398     1.27935 1.51398 C1.23619 1.51398 1.19376 1.48178 1.19376 1.44006 zM0.450666     1.42839 C0.450666 1.38343 0.48352 1.35447 0.528477 1.35447 C0.571501     1.35447 0.610178 1.39092 0.610178 1.43228 L0.610178 1.44006 C0.610178 1.48086     0.569036 1.51398 0.524587 1.51398 C0.488067 1.51398 0.450666 1.48408 0.450666     1.44784 zM0.54404 1.25332 C0.544985 1.24193 0.583579 1.14697 0.59067 1.12876     C0.606847 1.0872 0.613355 1.03933 0.672426 1.03933 L1.1354 1.03933 C1.20657     1.03933 1.1901 1.08561 1.21555 1.13037 C1.22183 1.14142 1.25964 1.24177     1.2599 1.25332 zM0.450666 1.27666 C0.398099 1.27666 0.357292 1.31337 0.357292     1.36614 L0.357292 1.59568 C0.357292 1.62159 0.399729 1.65404 0.435103 1.65404     L0.435103 1.78632 C0.435103 1.83163 0.468595 1.86802 0.516804 1.86802 C0.55217     1.86802 0.594615 1.8284 0.594615 1.80189 L0.594615 1.65404 L1.21321     1.65404 L1.21321 1.80967 C1.21321 1.83359 1.25492 1.86802 1.28713 1.86802 L1.29102     1.86802 C1.32646 1.86802 1.36883 1.8352 1.36883 1.80189 L1.36883 1.65404     C1.41651 1.65404 1.45054 1.62006 1.45054 1.57234 L1.45054 1.37003 C1.45054     1.31904 1.41678 1.28706 1.37113 1.27826 C1.34037 1.27233 1.34601 1.25691     1.33311 1.23069 C1.32366 1.21149 1.31577 1.18928 1.30717 1.17103 C1.27589 1.1047     1.25317 0.965413 1.16653 0.965413 L0.637414 0.965413 C0.564248 0.965413     0.54915 1.04834 0.525276 1.10227 C0.509279 1.13839 0.457638 1.24673 0.450666     1.27666 z" style="fill:rgb(0,0,0)"/><line x1="1.70732" x2="1.70863" y1="1.42839" y2="1.33593"/><line x1="1.96019" x2="2.03802" y1="0.97798" y2="0.973189"/><polygon points="1.98744,1.3389 1.77735,1.3389 2.02439,0.974508 2.03802,0.973189 1.96019,0.97798 1.70863,1.33593     1.70732,1.42839 1.98744,1.42839" style="fill:rgb(255,255,255)"/><line x1="1.78276" x2="1.79291" y1="0.781843" y2="0.813677"/><line x1="1.97966" x2="1.97966" y1="0.782555" y2="0.813677"/><polygon points="1.97966,0.813677 1.97966,0.782555 1.78276,0.781843 1.79291,0.813677" style="fill:rgb(255,255,255)"/></g></svg>
